src/images/svg/symbols/markets-stocks-and-indices/american-stocks/stocks-puma.svg

<svg width="32" height="32" viewBox="0 0 32 32" fill="none" xmlns="http://www.w3.org/2000/svg">
<path d="M0 16C0 7.16344 7.16344 0 16 0C24.8366 0 32 7.16344 32 16C32 24.8366 24.8366 32 16 32C7.16344 32 0 24.8366 0 16Z" fill="#F2F3F4"/>
<path d="M16.8781 9.75382C16.9293 9.65442 16.9707 9.57389 17.0129 9.56737V9.5674C17.0546 9.56062 17.1097 9.63194 17.1651 9.70357C17.2234 9.77891 17.2819 9.85461 17.3253 9.84016C17.3621 9.82763 17.4047 9.77611 17.4507 9.72058C17.5173 9.64012 17.5909 9.55124 17.6635 9.56045C17.7159 9.5674 17.924 9.98407 17.924 9.98407C19.3874 10.0565 21.15 11.6131 21.7524 12.145C21.8403 12.2227 21.9035 12.2785 21.9374 12.3047C21.9568 12.3197 21.9858 12.3454 22.0244 12.3797C22.2405 12.5715 22.759 13.0318 23.6009 13.4009C24.009 13.58 24.4187 13.6569 24.799 13.6287C25.306 13.5923 25.8732 13.147 26.222 12.5406C26.3392 12.337 26.4384 12.093 26.5451 11.8303C26.8364 11.1138 27.1838 10.2591 28.1075 9.7109C28.2841 9.60623 28.6844 9.37192 28.9159 9.66717C29.1019 9.90638 28.9486 10.301 28.7544 10.4903C28.6317 10.6097 28.4092 10.7303 27.9868 10.9295C27.8433 10.9982 27.6094 11.1728 27.5182 11.2439C27.0729 11.5834 26.7478 12.3477 26.3897 13.1896L26.3721 13.2312C26.3721 13.2312 26.2163 13.6532 25.5297 14.1067C25.4391 14.1655 25.4841 14.2178 25.5687 14.3159C25.5917 14.3426 25.6177 14.3727 25.6446 14.4073C25.8061 14.6211 26.13 15.4921 26.0883 16.8177C26.0826 17.009 26.1444 17.1123 26.2251 17.2475C26.2438 17.2789 26.2636 17.3119 26.2837 17.3481C26.3601 17.4845 26.4668 17.5524 26.5654 17.6152C26.7072 17.7055 26.8325 17.7852 26.8272 18.0424C26.8205 18.3513 26.9378 18.5319 27.0298 18.6734C27.112 18.7999 27.174 18.8952 27.1085 19.023C27.0277 19.1798 27.0336 19.3329 27.0395 19.4859C27.0411 19.5249 27.0426 19.5638 27.0426 19.6028C27.0426 19.6193 27.0442 19.637 27.0457 19.655C27.0532 19.7437 27.0614 19.8399 26.8942 19.8314C26.0821 19.7822 26.1254 18.7062 26.1413 18.3134L26.1419 18.2984C26.1549 18.2481 26.1173 18.1582 26.1107 18.1541C26.0699 18.1243 25.5575 17.726 25.5236 17.692C24.9012 17.059 24.4907 16.4902 24.2617 15.9055C24.11 15.5158 23.9538 15.1318 23.6867 14.8849C23.3874 14.6117 23.0206 14.4579 22.6988 14.4563C20.8427 14.4467 20.1823 13.7846 19.6668 13.2677C19.5467 13.1472 19.4344 13.0347 19.3167 12.9401C19.2979 12.9262 19.2407 12.8939 19.208 12.8914C19.1824 12.8932 19.1609 12.916 19.1423 12.9356C19.1356 12.9426 19.1293 12.9493 19.1233 12.9544C18.8829 13.2063 18.6408 13.2885 18.3153 13.2885C17.8799 13.2885 17.426 13.0737 17.0862 12.9129C16.8226 12.7881 16.6277 12.6959 16.5635 12.7618C16.518 12.8096 16.5071 12.878 16.4963 12.9451C16.4806 13.0432 16.4653 13.1385 16.3431 13.1625C16.0458 13.2222 15.7379 12.9286 15.7625 12.6796C15.807 12.2343 16.263 12.1039 16.6625 12.0585C16.926 12.0305 17.1504 12.0822 17.2624 12.108C17.2912 12.1147 17.3126 12.1196 17.3253 12.121C17.5098 12.1468 17.542 11.9235 17.5118 11.7796C17.4797 11.6335 17.3502 11.5954 17.2091 11.554C17.1994 11.5511 17.1896 11.5482 17.1798 11.5453C17.082 11.5161 16.9786 11.5452 16.8823 11.5723C16.7962 11.5964 16.7159 11.619 16.6506 11.5968C16.5442 11.5586 16.502 11.5098 16.4476 11.4468C16.4193 11.414 16.3877 11.3774 16.3419 11.3363C16.2911 11.2922 16.2379 11.2576 16.1883 11.2253C16.0707 11.1488 15.9729 11.0852 15.9735 10.9377C15.9735 10.8306 16.0453 10.7777 16.1209 10.722C16.1826 10.6765 16.2468 10.6292 16.2769 10.5492C16.2939 10.505 16.3001 10.4598 16.3057 10.4189C16.3114 10.3774 16.3164 10.3402 16.3317 10.3128C16.3773 10.2295 16.446 10.1963 16.519 10.161C16.5735 10.1347 16.6303 10.1072 16.6817 10.0569C16.7645 9.97473 16.8263 9.85458 16.8781 9.75382Z" fill="black"/>
<path d="M9.33852 21.4008C9.33852 21.5611 9.47263 21.6907 9.63048 21.6944C9.78912 21.6907 9.92325 21.5611 9.92325 21.4008L9.9249 16.1701H11.6472V21.9361C11.6472 22.2186 11.4211 22.4493 11.1381 22.4493H8.12485C7.84393 22.4493 7.61496 22.2186 7.61496 21.9361V16.1701H9.33893L9.33852 21.4008Z" fill="black"/>
<path d="M12.7934 16.1701H18.0123C18.321 16.1701 18.5729 16.4211 18.5729 16.7331V22.4493H16.8473V17.2058C16.8461 17.0451 16.7144 16.9179 16.5549 16.9179C16.3942 16.9179 16.265 17.0423 16.2629 17.2013V22.4493H14.5443V17.2014C14.5406 17.0423 14.4114 16.918 14.2503 16.918C14.09 16.918 13.96 17.0452 13.9587 17.2059V22.4493H12.2332V16.7331C12.2332 16.4211 12.4847 16.1701 12.7934 16.1701Z" fill="black"/>
<path fill-rule="evenodd" clip-rule="evenodd" d="M4.72315 20.8713H6.46469C6.77752 20.8713 7.02979 20.619 7.02979 20.3058V16.7356C7.02979 16.4228 6.78691 16.1701 6.47576 16.1701H3V22.4493H4.72315V20.8713ZM5.01592 16.9179C5.16682 16.9179 5.30911 17.0423 5.30788 17.2169V19.7991C5.30914 19.9729 5.16805 20.0939 5.01592 20.0939H4.72315V16.9179H5.01592Z" fill="black"/>
<path fill-rule="evenodd" clip-rule="evenodd" d="M24.653 22.1524H24.8587L24.572 21.7799L24.5843 21.7754C24.6894 21.7447 24.7646 21.6421 24.7646 21.5264C24.7646 21.353 24.6371 21.2622 24.397 21.2622H24.2204V22.1524H24.3884V21.8003L24.653 22.1524ZM24.6003 21.5284C24.6003 21.6135 24.5373 21.656 24.4175 21.656H24.3884V21.4139H24.4228C24.5393 21.4139 24.6003 21.4528 24.6003 21.5284Z" fill="black"/>
<path fill-rule="evenodd" clip-rule="evenodd" d="M24.4972 22.4783C24.9204 22.4783 25.2623 22.1315 25.2623 21.7051C25.2623 21.2737 24.9204 20.9326 24.4845 20.9326C24.0695 20.9326 23.726 21.2843 23.726 21.7051C23.726 22.134 24.0695 22.4783 24.4972 22.4783ZM23.8491 21.7071C23.8491 21.3444 24.1398 21.0451 24.4862 21.0451H24.4972C24.8517 21.0451 25.1388 21.3436 25.1388 21.7071C25.1388 22.071 24.8517 22.3679 24.4972 22.3679C24.1398 22.3679 23.8491 22.071 23.8491 21.7071Z" fill="black"/>
<path fill-rule="evenodd" clip-rule="evenodd" d="M21.466 20.8729V22.4493L23.1891 22.4493V16.7331C23.1891 16.4211 22.9376 16.1701 22.6281 16.1701H19.7183C19.4095 16.1701 19.1581 16.4211 19.1581 16.7331V22.4493H20.8804V20.8729H21.466ZM21.466 17.2038V20.0952H20.8804V17.2083C20.8816 17.0488 21.0133 16.9212 21.1724 16.9212C21.3331 16.9212 21.4619 17.0439 21.466 17.2038Z" fill="black"/>
</svg>

<svg width="32" height="32" fill="none" xmlns="http://www.w3.org/2000/svg"><path d="M0 16C0 7.163 7.163 0 16 0s16 7.163 16 16-7.163 16-16 16S0 24.837 0 16Z" fill="#F2F3F4"/><path d="M16.878 9.754c.051-.1.093-.18.135-.187.042-.006.097.065.152.137.058.075.117.15.16.136.037-.012.08-.064.126-.12.066-.08.14-.169.212-.16.053.007.261.424.261.424 1.463.072 3.226 1.63 3.828 2.161.088.078.152.133.185.16.02.015.049.04.087.075.216.191.735.652 1.577 1.02.408.18.818.257 1.198.229.507-.037 1.074-.482 1.423-1.088.117-.204.216-.448.323-.71.291-.717.639-1.572 1.563-2.12.176-.105.576-.34.808-.044.186.24.033.634-.162.823-.122.12-.345.24-.767.44a3.405 3.405 0 0 0-.469.314c-.445.34-.77 1.104-1.128 1.946l-.018.041s-.156.422-.842.876c-.09.059-.046.11.039.209.023.027.049.057.076.091.161.214.485 1.085.443 2.41-.005.192.056.295.137.43l.059.101c.076.137.183.204.281.267.142.09.267.17.262.427-.007.31.11.49.203.631.082.127.144.222.078.35-.08.157-.074.31-.069.463.002.039.004.078.004.117l.003.052c.007.089.015.185-.152.176-.812-.049-.769-1.125-.753-1.518v-.015c.014-.05-.024-.14-.03-.144-.041-.03-.553-.428-.587-.462-.623-.633-1.033-1.202-1.262-1.787-.152-.39-.308-.773-.575-1.02-.3-.273-.666-.427-.988-.429-1.856-.01-2.517-.671-3.032-1.188a4.436 4.436 0 0 0-.35-.328.296.296 0 0 0-.109-.049c-.026.002-.047.025-.066.045l-.019.018c-.24.252-.482.335-.808.335-.435 0-.889-.215-1.229-.376-.263-.125-.458-.217-.522-.151-.046.048-.057.116-.068.183-.015.098-.03.194-.153.217-.297.06-.605-.233-.58-.482.044-.446.5-.576.9-.621.263-.028.487.023.6.049.028.007.05.012.062.013.185.026.217-.197.187-.341-.032-.146-.162-.185-.303-.226l-.03-.009c-.097-.029-.2 0-.297.027-.086.024-.166.047-.231.025a.425.425 0 0 1-.203-.15 1.12 1.12 0 0 0-.106-.11c-.05-.045-.104-.08-.154-.112-.117-.076-.215-.14-.214-.287 0-.107.071-.16.147-.216.062-.045.126-.093.156-.173a.571.571 0 0 0 .029-.13c.005-.042.01-.079.026-.106.045-.084.114-.117.187-.152a.571.571 0 0 0 .163-.104 1.21 1.21 0 0 0 .196-.303ZM9.339 21.4c0 .161.134.29.291.294a.299.299 0 0 0 .293-.293l.002-5.23h1.722v5.765a.51.51 0 0 1-.509.513H8.125c-.281 0-.51-.23-.51-.513V16.17h1.724v5.23ZM12.793 16.17h5.22c.308 0 .56.251.56.563v5.716h-1.726v-5.243a.291.291 0 0 0-.292-.288c-.16 0-.29.124-.292.283v5.248h-1.719v-5.248a.29.29 0 0 0-.294-.283.29.29 0 0 0-.291.288v5.243h-1.726v-5.716c0-.312.252-.563.56-.563Z" fill="#000"/><path fill-rule="evenodd" clip-rule="evenodd" d="M4.723 20.871h1.742a.564.564 0 0 0 .565-.565v-3.57a.556.556 0 0 0-.554-.566H3v6.28h1.723V20.87Zm.293-3.953c.15 0 .293.124.292.299v2.582a.291.291 0 0 1-.292.295h-.293v-3.176h.293ZM24.653 22.152h.206l-.287-.372.012-.005a.259.259 0 0 0 .18-.249c0-.173-.127-.264-.367-.264h-.177v.89h.168V21.8l.265.352Zm-.053-.624c0 .085-.063.128-.183.128h-.029v-.242h.035c.116 0 .177.039.177.114Z" fill="#000"/><path fill-rule="evenodd" clip-rule="evenodd" d="M24.497 22.478a.77.77 0 0 0 .765-.773.768.768 0 1 0-1.536 0 .77.77 0 0 0 .771.773Zm-.648-.77c0-.364.29-.663.637-.663h.011c.355 0 .642.299.642.662 0 .364-.287.66-.642.66a.656.656 0 0 1-.648-.66ZM21.466 20.873v1.576h1.723v-5.716a.562.562 0 0 0-.56-.563h-2.91a.561.561 0 0 0-.56.563v5.716h1.721v-1.576h.586Zm0-3.67v2.892h-.586v-2.887a.291.291 0 0 1 .292-.287c.161 0 .29.123.294.283Z" fill="#000"/></svg>
